icons/xbox-fill.svg

<svg viewBox="0 0 24 24" fill="currentColor" xmlns="http://www.w3.org/2000/svg"><path d="M5.41931 19.5275C7.17681 21.0675 9.48181 22 12.001 22C14.5226 22 16.8251 21.0675 18.586 19.5275C20.1501 17.9342 14.9893 12.27 12.001 10.0133C9.01598 12.27 3.85181 17.9342 5.41931 19.5275ZM14.7193 7.5225C16.8026 9.99 20.956 16.1167 19.7826 18.2825C21.1693 16.5667 22.001 14.3842 22.001 12.0033C22.001 9.22 20.8635 6.70167 19.026 4.89C19.026 4.89 19.0035 4.87167 18.9576 4.855C18.9051 4.83667 18.831 4.8175 18.7235 4.8175C18.2301 4.8175 17.0693 5.17917 14.7193 7.5225ZM5.04598 4.855C4.99848 4.87167 4.97764 4.88917 4.97431 4.89C3.13848 6.70167 2.00098 9.22 2.00098 12.0033C2.00098 14.3817 2.83264 16.5642 4.21848 18.2808C3.05098 16.11 7.20098 9.98833 9.28514 7.5225C6.93514 5.17833 5.77181 4.81833 5.28014 4.81833C5.17098 4.81833 5.09431 4.83583 5.04598 4.85667V4.855ZM12.001 4.95917C12.001 4.95917 9.54681 3.52333 7.63014 3.455C6.87764 3.4275 6.41848 3.70083 6.36264 3.7375C8.15014 2.53833 10.0501 2 11.9876 2H12.001C13.946 2 15.8385 2.53833 17.6393 3.7375C17.5826 3.69917 17.1268 3.4275 16.3726 3.455C14.456 3.52333 12.001 4.95417 12.001 4.95417V4.95917Z"/></svg>

<svg xmlns="http://www.w3.org/2000/svg" viewBox="0 0 24 24">
    <g>
        <path fill="none" d="M0 0h24v24H0z"/>
        <path fill-rule="nonzero" d="M5.418 19.527A9.956 9.956 0 0 0 12 22a9.967 9.967 0 0 0 6.585-2.473c1.564-1.593-3.597-7.257-6.585-9.514-2.985 2.257-8.15 7.921-6.582 9.514zm9.3-12.005c2.084 2.468 6.237 8.595 5.064 10.76A9.952 9.952 0 0 0 22 12.003a9.958 9.958 0 0 0-2.975-7.113s-.022-.018-.068-.035a.686.686 0 0 0-.235-.038c-.493 0-1.654.362-4.004 2.705zM5.045 4.856c-.048.017-.068.034-.072.035A9.963 9.963 0 0 0 2 12.003c0 2.379.832 4.561 2.218 6.278C3.05 16.11 7.2 9.988 9.284 7.523 6.934 5.178 5.771 4.818 5.28 4.818a.604.604 0 0 0-.234.039v-.002zM12 4.959S9.546 3.523 7.63 3.455c-.753-.027-1.212.246-1.268.282C8.149 2.538 10.049 2 11.987 2H12c1.945 0 3.838.538 5.638 1.737-.056-.038-.512-.31-1.266-.282-1.917.068-4.372 1.5-4.372 1.5v.004z"/>
    </g>
</svg>
